kora-light/actions/scalable/path-mode-bspline.svg

<svg xmlns="http://www.w3.org/2000/svg" style="fill-rule:evenodd;clip-rule:evenodd;stroke-linejoin:round;stroke-miterlimit:2" width="100%" height="100%" version="1.1" viewBox="0 0 16 16" xml:space="preserve">
 <defs>
  <style id="current-color-scheme" type="text/css">
   .ColorScheme-Text { color:#444444; } .ColorScheme-Highlight { color:#4285f4; } .ColorScheme-NeutralText { color:#ff9800; } .ColorScheme-PositiveText { color:#4caf50; } .ColorScheme-NegativeText { color:#f44336; }
  </style>
 </defs>
 <path style="fill:currentColor;" class="ColorScheme-Text" d="M11,3c-4.5,0 -8,3.5 -8,8l0,3c0,0 0,1 1,1c1,0 1,-1 1,-1l0,-3c0,-3 3,-6 6,-6l3,0c0,0 1,0 1,-1c0,-1 -1,-1 -1,-1l-3,0Zm-10,-2l0,14l1,0l0,-13l13,0l0,-1l-14,0Z"/>
</svg>

<svg xmlns="http://www.w3.org/2000/svg" width="16" height="16" version="1.1">
 <defs>
  <style id="current-color-scheme" type="text/css">
   .ColorScheme-Text { color:#444444; } .ColorScheme-Highlight { color:#4285f4; }
  </style>
 </defs>
 <path style="fill:currentColor" class="ColorScheme-Text" d="M 11,3 C 6.5,3 3,6.5 3,11 V 14 C 3,14 3,15 4,15 5,15 5,14 5,14 V 11 C 5,8 8,5 11,5 H 14 C 14,5 15,5 15,4 15,3 14,3 14,3 Z M 1,1 V 15 H 2 V 2 H 15 V 1 Z"/>
</svg>
